src/img/sbb/share/link_152_large.svg

<svg xmlns="http://www.w3.org/2000/svg" width="48" height="48" viewBox="0 0 48 48">
  <path fill="none" stroke="#000" stroke-width="2" d="M26.5352,21.879 L25.1212,20.463 C22.7872,18.131 18.9692,18.131 16.6352,20.463 L8.1512,28.949 C5.8172,31.283 5.8172,35.101 8.1512,37.435 L9.5652,38.849 C11.8992,41.181 15.7172,41.181 18.0492,38.849 L23.0092,33.889 M19.4648,26.121 L20.8788,27.535 C23.2128,29.869 27.0308,29.869 29.3628,27.535 L37.8488,19.049 C40.1828,16.717 40.1828,12.899 37.8488,10.565 L36.4348,9.151 C34.1008,6.817 30.2828,6.817 27.9488,9.151 L23.0008,14.101"/>
</svg>

<svg xmlns="http://www.w3.org/2000/svg" viewBox="0 0 48 48"><path fill="none" stroke="#000" stroke-width="2" d="M26.535 21.879l-1.414-1.416c-2.334-2.332-6.152-2.332-8.486 0l-8.484 8.486c-2.334 2.334-2.334 6.152 0 8.486l1.414 1.414c2.334 2.332 6.152 2.332 8.484 0l4.96-4.96m-3.544-7.768l1.414 1.414c2.334 2.334 6.152 2.334 8.484 0l8.486-8.486c2.334-2.332 2.334-6.15 0-8.484l-1.414-1.414c-2.334-2.334-6.152-2.334-8.486 0L23 14.101"/></svg>
